icons/file_type_opencl.svg

<svg xmlns="http://www.w3.org/2000/svg" xmlns:xlink="http://www.w3.org/1999/xlink" viewBox="0 0 32 32"><defs><linearGradient id="a" x1="29.662" x2="21.419" y1="18.026" y2="20.234" gradientUnits="userSpaceOnUse"><stop offset="0" stop-color="red"/><stop offset="1" stop-color="#ff6a6a"/></linearGradient><linearGradient xlink:href="#a" id="e" x1="24.588" x2="18.776" y1="9.748" y2="15.56"/><linearGradient id="b" x1="18.466" x2="15.924" y1="6.619" y2="13.603" gradientUnits="userSpaceOnUse"><stop offset="0" stop-color="#cfa40c"/><stop offset="1" stop-color="#edd480"/></linearGradient><linearGradient xlink:href="#b" id="f" x1="13.17" x2="13.17" y1="6.51" y2="12.997"/><linearGradient xlink:href="#b" id="g" x1="8.808" x2="10.988" y1="8.486" y2="13.161"/><linearGradient id="c" x1="5.505" x2="8.546" y1="11.477" y2="14.519" gradientUnits="userSpaceOnUse"><stop offset="0" stop-color="#11a119"/><stop offset="1" stop-color="#37ae3d"/></linearGradient><linearGradient xlink:href="#c" id="h" x1="3.639" x2="6.883" y1="14.285" y2="16.158"/><linearGradient xlink:href="#c" id="i" x1="2.265" x2="5.379" y1="17.799" y2="18.933"/><linearGradient xlink:href="#c" id="j" x1="2" x2="4.833" y1="21.614" y2="21.614"/><linearGradient id="d" x1="20.662" x2="18.026" y1="18.949" y2="17.428" gradientUnits="userSpaceOnUse"><stop offset=".5" stop-color="#646464"/><stop offset="1" stop-color="#cbcbcb"/></linearGradient><linearGradient xlink:href="#d" id="k" x1="16.021" x2="16.021" y1="25.264" y2="22.691"/></defs><path d="M27.828 13.574a14.676 14.676 0 0 1 .835 1.542A14.964 14.964 0 0 1 29.92 22.9h-7.787a10.377 10.377 0 0 0-.967-4.424Z" style="fill:url(#a)"/><path d="M17.753 14.43a10.074 10.074 0 0 1 2.772 2.878l6.273-5.2a15.54 15.54 0 0 0-4.988-4.15Z" style="fill:url(#e)"/><path d="M14.781 13.086a8.827 8.827 0 0 1 2.376.966l3.509-6.622a12.7 12.7 0 0 0-4.645-.952Z" style="fill:url(#b)"/><path d="m14.364 13 .612-6.488a12.46 12.46 0 0 0-3.611.813l.507 5.638a7.219 7.219 0 0 1 2.492.037" style="fill:url(#f)"/><path d="m10.948 13.179-.683-5.373a14.588 14.588 0 0 0-2.492 1.573l1.74 4.42a7.518 7.518 0 0 1 1.435-.619" style="fill:url(#g)"/><path d="m8.86 14.206-2.386-3.695c-.453.44-.79.82-1.006 1.074q-.227.267-.436.538l2.448 3.264a8.87 8.87 0 0 1 1.38-1.182" style="fill:url(#c)"/><path d="m7.046 15.875-2.711-2.763a14.259 14.259 0 0 0-1.25 2.429l3.007 1.71a9.826 9.826 0 0 1 .954-1.376" style="fill:url(#h)"/><path d="m5.527 18.393-2.77-1.945a15.452 15.452 0 0 0-.63 2.83l2.906.607a10.343 10.343 0 0 1 .494-1.492" style="fill:url(#i)"/><path d="M4.833 20.9a10.684 10.684 0 0 0-.1 2h-2.64a14.333 14.333 0 0 1-.064-2.573Z" style="fill:url(#j)"/><path d="m22.551 12.478-7.8 10.622a1.544 1.544 0 0 1 2.749 1.328Z" style="fill:url(#d)"/><path d="M16.021 25.522a1.544 1.544 0 1 1 1.092-.452 1.533 1.533 0 0 1-1.092.452Z" style="fill:#646464"/><path d="M17.308 23.978a1.287 1.287 0 1 1-.377-.91 1.283 1.283 0 0 1 .377.91Z" style="fill:url(#k)"/></svg>

<svg xmlns="http://www.w3.org/2000/svg" xmlns:xlink="http://www.w3.org/1999/xlink" viewBox="0 0 32 32"><defs><linearGradient id="a" x1="29.662" y1="18.026" x2="21.419" y2="20.234" gradientUnits="userSpaceOnUse"><stop offset="0" stop-color="red"/><stop offset="1" stop-color="#ff6a6a"/></linearGradient><linearGradient id="b" x1="24.588" y1="9.748" x2="18.776" y2="15.56" xlink:href="#a"/><linearGradient id="c" x1="18.466" y1="6.619" x2="15.924" y2="13.603" gradientUnits="userSpaceOnUse"><stop offset="0" stop-color="#cfa40c"/><stop offset="1" stop-color="#edd480"/></linearGradient><linearGradient id="d" x1="13.17" y1="6.51" x2="13.17" y2="12.997" xlink:href="#c"/><linearGradient id="e" x1="8.808" y1="8.486" x2="10.988" y2="13.161" xlink:href="#c"/><linearGradient id="f" x1="5.505" y1="11.477" x2="8.546" y2="14.519" gradientUnits="userSpaceOnUse"><stop offset="0" stop-color="#11a119"/><stop offset="1" stop-color="#37ae3d"/></linearGradient><linearGradient id="g" x1="3.639" y1="14.285" x2="6.883" y2="16.158" xlink:href="#f"/><linearGradient id="h" x1="2.265" y1="17.799" x2="5.379" y2="18.933" xlink:href="#f"/><linearGradient id="i" x1="2" y1="21.614" x2="4.833" y2="21.614" xlink:href="#f"/><linearGradient id="j" x1="20.662" y1="18.949" x2="18.026" y2="17.428" gradientUnits="userSpaceOnUse"><stop offset="0.5" stop-color="#646464"/><stop offset="1" stop-color="#cbcbcb"/></linearGradient><linearGradient id="k" x1="16.021" y1="25.264" x2="16.021" y2="22.691" xlink:href="#j"/></defs><title>file_type_opencl</title><path d="M27.828,13.574a14.676,14.676,0,0,1,.835,1.542A14.964,14.964,0,0,1,29.92,22.9H22.133a10.377,10.377,0,0,0-.967-4.424Z" style="fill:url(#a)"/><path d="M17.753,14.43a10.074,10.074,0,0,1,2.772,2.878l6.273-5.2a15.54,15.54,0,0,0-4.988-4.15Z" style="fill:url(#b)"/><path d="M14.781,13.086a8.827,8.827,0,0,1,2.376.966L20.666,7.43a12.7,12.7,0,0,0-4.645-.952Z" style="fill:url(#c)"/><path d="M14.364,13l.612-6.488a12.46,12.46,0,0,0-3.611.813l.507,5.638A7.219,7.219,0,0,1,14.364,13" style="fill:url(#d)"/><path d="M10.948,13.179l-.683-5.373A14.588,14.588,0,0,0,7.773,9.379l1.74,4.42a7.518,7.518,0,0,1,1.435-.619" style="fill:url(#e)"/><path d="M8.86,14.206,6.474,10.511c-.453.44-.79.82-1.006,1.074q-.227.267-.436.538L7.48,15.387a8.87,8.87,0,0,1,1.38-1.182" style="fill:url(#f)"/><path d="M7.046,15.875,4.335,13.112a14.259,14.259,0,0,0-1.25,2.429l3.007,1.71a9.826,9.826,0,0,1,.954-1.376" style="fill:url(#g)"/><path d="M5.527,18.393l-2.77-1.945a15.452,15.452,0,0,0-.63,2.83l2.906.607a10.343,10.343,0,0,1,.494-1.492" style="fill:url(#h)"/><path d="M4.833,20.9a10.684,10.684,0,0,0-.1,2H2.093a14.333,14.333,0,0,1-.064-2.573Z" style="fill:url(#i)"/><path d="M22.551,12.478,14.751,23.1A1.544,1.544,0,0,1,17.5,24.428Z" style="fill:url(#j)"/><path d="M16.021,25.522a1.544,1.544,0,1,1,1.092-.452A1.533,1.533,0,0,1,16.021,25.522Z" style="fill:#646464"/><path d="M17.308,23.978a1.287,1.287,0,1,1-.377-.91A1.283,1.283,0,0,1,17.308,23.978Z" style="fill:url(#k)"/></svg>
